source/img/logo-mobile.svg

<svg width="44" height="18" viewBox="0 0 44 18" fill="none" xmlns="http://www.w3.org/2000/svg">
<path d="M21.4021 0.51123L17.0223 13.6865H13.6943L10.7489 4.76497L7.70783 13.6865H4.39901L0 0.51123H3.21319L6.23512 9.77158L9.39093 0.51123H12.2599L15.32 9.84687L18.4376 0.51123H21.4021Z" fill="#141517"/>
<path d="M26.3061 3.40979C27.8999 3.40979 29.124 3.78623 29.9783 4.53911C30.8326 5.27943 31.2597 6.40247 31.2597 7.90822V13.6865H28.4673V12.4255C27.9063 13.3666 26.8607 13.8371 25.3306 13.8371C24.5401 13.8371 23.8515 13.7053 23.265 13.4418C22.6912 13.1783 22.2513 12.8144 21.9453 12.3502C21.6393 11.8859 21.4863 11.3589 21.4863 10.7691C21.4863 9.82805 21.8433 9.08772 22.5573 8.54816C23.2841 8.0086 24.3998 7.73882 25.9044 7.73882H28.276C28.276 7.09888 28.0784 6.60951 27.6831 6.27072C27.2879 5.91938 26.6949 5.7437 25.9044 5.7437C25.3561 5.7437 24.8142 5.83154 24.2787 6.00721C23.7559 6.17033 23.3096 6.3962 22.9399 6.6848L21.8688 4.63322C22.4298 4.24423 23.0992 3.94308 23.877 3.72977C24.6676 3.51645 25.4773 3.40979 26.3061 3.40979ZM26.0765 11.8608C26.5866 11.8608 27.0392 11.7479 27.4345 11.522C27.8298 11.2836 28.1103 10.9385 28.276 10.4868V9.45161H26.2295C25.0055 9.45161 24.3934 9.84687 24.3934 10.6374C24.3934 11.0138 24.5401 11.315 24.8333 11.5408C25.1394 11.7541 25.5538 11.8608 26.0765 11.8608Z" fill="#141517"/>
<path d="M43.9867 3.56037L39.339 14.3076C38.8672 15.4746 38.2807 16.2965 37.5794 16.7733C36.8909 17.2501 36.0557 17.4885 35.0739 17.4885C34.5384 17.4885 34.0092 17.407 33.4864 17.2439C32.9636 17.0807 32.5365 16.8549 32.205 16.5663L33.2952 14.477C33.5247 14.6778 33.7861 14.8347 34.0793 14.9476C34.3853 15.0605 34.685 15.117 34.9783 15.117C35.3863 15.117 35.7178 15.0166 35.9728 14.8158C36.2278 14.6276 36.4573 14.3076 36.6614 13.8559L36.6996 13.7618L32.2432 3.56037H35.3225L38.2106 10.4303L41.1177 3.56037H43.9867Z" fill="#141517"/>
<path d="M44 3.55957L39.3523 14.3068C38.8805 15.4738 38.294 16.2957 37.5927 16.7725C36.9042 17.2493 36.069 17.4877 35.0872 17.4877C34.5516 17.4877 34.0225 17.4062 33.4997 17.2431C32.9769 17.0799 32.5498 16.8541 32.2183 16.5655L33.3084 14.4762C33.538 14.677 33.7994 14.8339 34.0926 14.9468C34.3986 15.0597 34.6983 15.1162 34.9916 15.1162C35.3996 15.1162 35.7311 15.0158 35.9861 14.815C36.2411 14.6268 36.4706 14.3068 36.6747 13.8551L36.7129 13.761L38.2239 10.4295L41.131 3.55957H44Z" fill="#FE7865"/>
</svg>

<svg width="44" height="18" fill="none" xmlns="http://www.w3.org/2000/svg"><path d="M21.402.511l-4.38 13.176h-3.328L10.75 4.764l-3.041 8.922h-3.31L0 .51h3.213l3.022 9.26L9.391.512h2.869l3.06 9.336L18.438.51h2.964zm4.904 2.899c1.594 0 2.818.376 3.672 1.13.855.74 1.282 1.862 1.282 3.368v5.779h-2.793v-1.261c-.56.94-1.606 1.411-3.136 1.411-.79 0-1.48-.132-2.066-.395-.574-.264-1.014-.628-1.32-1.092a2.808 2.808 0 01-.459-1.58c0-.942.357-1.682 1.071-2.222.727-.54 1.843-.81 3.347-.81h2.372c0-.64-.198-1.128-.593-1.467-.395-.352-.988-.527-1.779-.527a5.2 5.2 0 00-1.625.263 4.19 4.19 0 00-1.34.678l-1.07-2.052c.56-.389 1.23-.69 2.008-.903.79-.214 1.6-.32 2.43-.32zm-.23 8.45c.51 0 .963-.112 1.358-.338.396-.238.676-.584.842-1.035V9.452H26.23c-1.224 0-1.837.395-1.837 1.185 0 .377.147.678.44.904.306.213.72.32 1.244.32zm17.911-8.3l-4.648 10.748c-.472 1.167-1.058 1.989-1.76 2.465-.688.477-1.523.715-2.505.715a5.302 5.302 0 01-1.588-.244c-.522-.163-.95-.39-1.281-.678l1.09-2.089a2.598 2.598 0 001.683.64c.408 0 .74-.1.995-.301.255-.188.484-.508.688-.96l.039-.094L32.243 3.56h3.08l2.888 6.87 2.907-6.87h2.869z" fill="#141517"/><path d="M44 3.56l-4.648 10.747c-.471 1.167-1.058 1.989-1.76 2.466-.688.476-1.523.715-2.505.715a5.302 5.302 0 01-1.587-.245c-.523-.163-.95-.389-1.282-.677l1.09-2.09a2.6 2.6 0 001.684.64c.408 0 .74-.1.994-.301.255-.188.485-.508.689-.96l.038-.094 1.51-3.331 2.908-6.87H44z" fill="#FE7865"/></svg>
